packages/ui-icons/svg/Solid/upload.svg

<svg viewBox="0 0 1920 1920" version="1.1" xmlns="http://www.w3.org/2000/svg">
    <path d="M1764.98015,1402.82421 L1920.34165,1558.18571 L1558.52736,1920 L368.81429,1920 L7,1558.18571 L162.361496,1402.82421 L459.789763,1700.25248 L1467.55189,1700.25248 L1764.98015,1402.82421 Z M965.901262,0 L1483.07705,517.175787 L1327.71555,672.537283 L1075.77502,420.596752 L1075.77502,1423.30468 L856.027503,1423.30468 L856.027503,420.596752 L604.086972,672.537283 L448.725476,517.175787 L965.901262,0 Z" stroke="none" stroke-width="1" fill-rule="evenodd"/>
</svg>

<svg viewBox="0 0 1920 1920" version="1.1" xmlns="http://www.w3.org/2000/svg">
    <path d="M1467.552 1700.252l297.428-297.428 155.362 155.362L1558.527 1920H368.814L7 1558.186l155.361-155.362 297.429 297.428h1007.762zM965.902 0l517.175 517.176-155.361 155.361-251.941-251.94v1002.708H856.028V420.597l-251.941 251.94-155.362-155.361L965.901 0z" stroke="none" stroke-width="1" fill-rule="evenodd"/>
</svg>
